dist/static/img/bitrix/01.svg

<svg width="48" height="48" viewBox="0 0 48 48" fill="none" xmlns="http://www.w3.org/2000/svg">
<g clip-path="url(#clip0_1071_3725)">
<path d="M0 23.2969H5.0625V24.7031H0V23.2969Z" fill="#1F5AFF"/>
<path d="M42.9375 23.2969H48V24.7031H42.9375V23.2969Z" fill="#1F5AFF"/>
<path d="M23.2969 42.9375H24.7031V48H23.2969V42.9375Z" fill="#1F5AFF"/>
<path d="M44.5438 20.3715L45.9292 20.1283C45.0928 15.3591 42.6597 10.9163 39.0789 7.61816L38.126 8.65271C41.4816 11.7428 43.7605 15.9044 44.5438 20.3715Z" fill="#1F5AFF"/>
<path d="M37.9806 6.67029C35.056 4.30786 31.5602 2.71741 27.8721 2.07031L27.6289 3.45532C31.0834 4.0614 34.3573 5.55115 37.0969 7.76416L37.9806 6.67029Z" fill="#1F5AFF"/>
<path d="M20.3713 3.45532L20.1282 2.07031C10.9388 3.68201 3.68201 10.9388 2.07031 20.1282L3.45569 20.3713C4.96521 11.7632 11.7632 4.96521 20.3713 3.45532Z" fill="#1F5AFF"/>
<path d="M27.6289 44.5449L27.8721 45.9299C37.0614 44.3182 44.3182 37.0614 45.9299 27.8721L44.5446 27.6289C43.035 36.2371 36.2371 43.035 27.6289 44.5449Z" fill="#1F5AFF"/>
<path d="M3.45569 27.6289L2.07031 27.8721C3.68201 37.0614 10.9388 44.3182 20.1282 45.9299L20.3713 44.5449C11.7632 43.035 4.96521 36.2371 3.45569 27.6289Z" fill="#1F5AFF"/>
<path d="M23.2969 0H24.7031V5.0625H23.2969V0Z" fill="#1F5AFF"/>
<path d="M20.0156 19.3594C20.0156 20.191 20.272 20.9637 20.7096 21.6035C19.5795 22.1792 18.6354 23.0365 17.9513 24.0707C17.5913 23.7363 17.1914 23.4496 16.7593 23.2159C17.0698 22.7146 17.25 22.1239 17.25 21.4922V20.2031C17.25 18.3937 15.7782 16.9219 13.9688 16.9219C12.1593 16.9219 10.6875 18.3937 10.6875 20.2031V21.4922C10.6875 22.1166 10.8629 22.7007 11.1669 23.1984C9.30725 24.2142 8.10938 26.1918 8.10938 28.3671V30.0469H6.65625V31.4531H13.6875V30.0469H12.2344V28.0312H10.8281V30.0469H9.51562V28.3671C9.51562 26.5726 10.5846 24.9565 12.204 24.256C12.7137 24.583 13.3195 24.7734 13.9688 24.7734C14.6093 24.7734 15.2069 24.5881 15.7126 24.2695C16.3052 24.5219 16.8325 24.8979 17.265 25.3751C16.9215 26.2277 16.7344 27.1531 16.7344 28.1093V30.0469H15.0938V31.4531H41.3438V30.0469H39.8906V28.3671C39.8906 27.5933 39.7419 26.84 39.449 26.1273L38.1486 26.6624C38.3716 27.2043 38.4844 27.7778 38.4844 28.3671V30.0469H37.1719V28.0312H35.7656V30.0469H31.2656V28.1093C31.2656 27.1523 31.0778 26.2284 30.7328 25.3781C31.1664 24.8987 31.6945 24.5215 32.2874 24.2695C32.7931 24.5881 33.3907 24.7734 34.0312 24.7734C34.6805 24.7734 35.2859 24.583 35.796 24.2563C36.4772 24.5511 37.0763 25.0159 37.5403 25.6132L38.651 24.7507C38.1519 24.108 37.533 23.5825 36.8324 23.1991C37.1367 22.7014 37.3125 22.1169 37.3125 21.4922V20.2031C37.3125 18.3937 35.8407 16.9219 34.0312 16.9219C32.2218 16.9219 30.75 18.3937 30.75 20.2031V21.4922C30.75 22.1239 30.9302 22.7142 31.2407 23.2156C30.8068 23.4507 30.4047 23.7393 30.0432 24.0762C29.3569 23.0479 28.4092 22.1971 27.275 21.6251C27.7214 20.9813 27.9844 20.2006 27.9844 19.3594V19.1719H26.5781V19.3594C26.5781 20.781 25.4216 21.9375 24 21.9375C22.5784 21.9375 21.4219 20.781 21.4219 19.3594V17.7188C21.4219 16.2971 22.5784 15.1406 24 15.1406C25.4216 15.1406 26.5781 16.2971 26.5781 17.7188V17.7656H27.9844V17.7188C27.9844 15.5219 26.1969 13.7344 24 13.7344C21.8031 13.7344 20.0156 15.5219 20.0156 17.7188V19.3594ZM15.8438 21.4922C15.8438 22.526 15.0026 23.3672 13.9688 23.3672C12.9349 23.3672 12.0938 22.526 12.0938 21.4922V20.2031C12.0938 19.1693 12.9349 18.3281 13.9688 18.3281C15.0026 18.3281 15.8438 19.1693 15.8438 20.2031V21.4922ZM32.1562 20.2031C32.1562 19.1693 32.9974 18.3281 34.0312 18.3281C35.0651 18.3281 35.9062 19.1693 35.9062 20.2031V21.4922C35.9062 22.526 35.0651 23.3672 34.0312 23.3672C32.9974 23.3672 32.1562 22.526 32.1562 21.4922V20.2031ZM21.772 22.6611C22.4084 23.0918 23.1753 23.3438 24 23.3438C24.8123 23.3438 25.5685 23.0988 26.1991 22.6798C28.4015 23.5708 29.8594 25.7117 29.8594 28.1096V30.0469H27.9844V27.75H26.5781V30.0469H21.4219V27.75H20.0156V30.0469H18.1406V28.1093C18.1406 25.7142 19.589 23.5598 21.772 22.6611Z" fill="#1F5AFF"/>
<path d="M33.5127 34.5073L34.507 33.5127L35.5012 34.5073L34.507 35.5016L33.5127 34.5073Z" fill="#1F5AFF"/>
<path d="M35.501 36.4962L36.4956 35.502L37.4899 36.4962L36.4956 37.4908L35.501 36.4962Z" fill="#1F5AFF"/>
<path d="M10.5098 11.504L11.504 10.5098L12.4987 11.504L11.504 12.4983L10.5098 11.504Z" fill="#1F5AFF"/>
<path d="M12.498 13.4927L13.4923 12.498L14.4866 13.4927L13.4923 14.4869L12.498 13.4927Z" fill="#1F5AFF"/>
<path d="M10.5088 36.4976L11.5031 35.5029L12.4973 36.4976L11.5031 37.4918L10.5088 36.4976Z" fill="#1F5AFF"/>
<path d="M12.4971 34.5079L13.4917 33.5137L14.486 34.5079L13.4917 35.5026L12.4971 34.5079Z" fill="#1F5AFF"/>
<path d="M35.502 11.506L36.4962 10.5117L37.4908 11.506L36.4962 12.5006L35.502 11.506Z" fill="#1F5AFF"/>
<path d="M33.5127 13.4943L34.5073 12.5L35.5016 13.4943L34.5073 14.4885L33.5127 13.4943Z" fill="#1F5AFF"/>
<path d="M23.2969 24.6562H24.7031V26.0625H23.2969V24.6562Z" fill="#1F5AFF"/>
<path d="M23.2969 27.4688H24.7031V28.875H23.2969V27.4688Z" fill="#1F5AFF"/>
</g>
<defs>
<clipPath id="clip0_1071_3725">
<rect width="48" height="48" fill="white"/>
</clipPath>
</defs>
</svg>

<svg width="48" height="48" viewBox="0 0 48 48" fill="none" xmlns="http://www.w3.org/2000/svg"><g clip-path="url(#clip0_1071_3725)" fill="#1F5AFF"><path d="M0 23.297h5.063v1.406H0v-1.406zm42.938 0H48v1.406h-5.063v-1.406zM23.297 42.938h1.406V48h-1.406v-5.063zm21.247-22.566l1.385-.244c-.836-4.769-3.27-9.212-6.85-12.51l-.953 1.035a20.943 20.943 0 016.418 11.719zM37.98 6.67a22.25 22.25 0 00-10.108-4.6l-.243 1.385a20.839 20.839 0 019.468 4.31l.884-1.095zM20.371 3.455l-.243-1.385C10.938 3.682 3.682 10.94 2.07 20.128l1.386.243c1.51-8.608 8.307-15.406 16.915-16.916zm7.258 41.09l.243 1.385c9.19-1.612 16.446-8.869 18.058-18.058l-1.385-.243c-1.51 8.608-8.308 15.406-16.916 16.916zM3.456 27.629l-1.386.243c1.612 9.19 8.869 16.446 18.058 18.058l.243-1.385c-8.608-1.51-15.406-8.308-16.915-16.916zM23.297 0h1.406v5.063h-1.406V0z"/><path d="M20.016 19.36c0 .831.256 1.604.694 2.244a7.263 7.263 0 00-2.759 2.467 5.814 5.814 0 00-1.192-.855c.31-.501.491-1.092.491-1.724v-1.289a3.285 3.285 0 00-3.281-3.281 3.285 3.285 0 00-3.281 3.281v1.29c0 .624.175 1.208.479 1.705a5.897 5.897 0 00-3.058 5.17v1.679H6.656v1.406h7.032v-1.406h-1.454V28.03h-1.406v2.016H9.516v-1.68a4.482 4.482 0 012.688-4.111c.51.327 1.115.517 1.765.517a3.26 3.26 0 001.744-.503c.592.252 1.12.628 1.552 1.105a7.31 7.31 0 00-.53 2.734v1.938h-1.641v1.406h26.25v-1.406H39.89v-1.68c0-.774-.15-1.527-.442-2.24l-1.3.535a4.46 4.46 0 01.335 1.705v1.68h-1.312V28.03h-1.406v2.016h-4.5v-1.938c0-.957-.188-1.88-.533-2.73a4.43 4.43 0 011.554-1.11 3.262 3.262 0 003.509-.013 4.45 4.45 0 011.744 1.357l1.111-.862a5.868 5.868 0 00-1.819-1.552c.305-.498.48-1.082.48-1.707v-1.289a3.285 3.285 0 00-3.28-3.281 3.285 3.285 0 00-3.282 3.281v1.29c0 .63.18 1.221.49 1.723a5.826 5.826 0 00-1.197.86 7.256 7.256 0 00-2.768-2.45c.446-.645.71-1.425.71-2.267v-.187h-1.407v.187A2.581 2.581 0 0124 21.937a2.581 2.581 0 01-2.578-2.578v-1.64A2.581 2.581 0 0124 15.14a2.581 2.581 0 012.578 2.578v.047h1.406v-.047A3.989 3.989 0 0024 13.734a3.989 3.989 0 00-3.984 3.985v1.64zm-4.172 2.132a1.877 1.877 0 01-1.875 1.875 1.877 1.877 0 01-1.875-1.875v-1.289c0-1.034.84-1.875 1.875-1.875 1.034 0 1.875.841 1.875 1.875v1.29zm16.312-1.289c0-1.034.841-1.875 1.875-1.875s1.875.841 1.875 1.875v1.29a1.877 1.877 0 01-1.875 1.874 1.877 1.877 0 01-1.875-1.875v-1.289zm-10.384 2.458c.636.43 1.403.683 2.228.683.812 0 1.569-.245 2.2-.664a5.857 5.857 0 013.66 5.43v1.937h-1.876V27.75h-1.406v2.297h-5.156V27.75h-1.406v2.297H18.14v-1.938a5.896 5.896 0 013.631-5.448zm11.741 11.846l.994-.994.994.994-.994.995-.994-.995zm1.988 1.989l.995-.994.994.994-.994.995-.995-.995zM10.51 11.504l.994-.994.995.994-.995.994-.994-.994zm1.988 1.989l.994-.995.995.995-.995.994-.994-.994zm-1.989 23.005l.994-.995.994.995-.994.994-.994-.994zm1.988-1.99l.995-.994.994.994-.994.995-.995-.995zm23.005-23.002l.994-.994.995.994-.995.995-.994-.995zm-1.989 1.988l.994-.994.995.994-.995.995-.994-.995z"/><path d="M23.297 24.656h1.406v1.407h-1.406v-1.407zm0 2.813h1.406v1.406h-1.406v-1.406z"/></g><defs><clipPath id="clip0_1071_3725"><path fill="#fff" d="M0 0h48v48H0z"/></clipPath></defs></svg>
